!!!COM: Giovannelli, Ruggiero
!!!CDT: ~1560-1625/01/07
!!!OTL: Non è questa la mano
!!!PTL: Fiori musicali, libro secondo
!!!PPP: Venice
!!!PPR: Vincenzi
!!!PDT: 1588
!!!PUB-format: anthology
!!!AGN: Madrigal
!!!SCT: Trm0047m
!!!SCA: Trm0047m
!!!rime: 47
!!!original-voices:	3
!!!extant-voices: 3
!!!complete: Y
!!!final: G
**kern	**text	**kern	**text	**kern	**text
*part3	*part3	*part2	*part2	*part1	*part1
*staff3	*staff3	*staff2	*staff2	*staff1	*staff1
*Ivox	*	*Ivox	*	*Ivox	*
*I"Basso	*	*I"Tenore	*	*I"Canto	*
*I'B	*	*I'T	*	*I'C	*
*oclefC3	*	*oclefC2	*	*oclefG2	*
*clefGv2	*	*clefG2	*	*clefG2	*
*k[]	*	*k[]	*	*k[]	*
*omet(C)	*	*omet(C)	*	*omet(C)	*
*M4/2	*	*M4/2	*	*M4/2	*
=1	=1	=1	=1	=1	=1
0r	.	0r	.	1g	Non
.	.	.	.	2a	&egrave;
.	.	.	.	2b	que-
=2	=2	=2	=2	=2	=2
0r	.	1r	.	2cc	-sta
.	.	.	.	2dd	la
.	.	1c	Non	2ee	ma-
.	.	.	.	2ee	-no
=3	=3	=3	=3	=3	=3
0r	.	2d	&egrave;	4r	.
.	.	.	.	4dd	Che
.	.	2e	que-	4cc	tan-
.	.	.	.	4b	-t'e
.	.	2f	-sta	4a	s&igrave;
.	.	.	.	4a	mor-
.	.	2g	la	2b	-ta-
=4	=4	=4	=4	=4	=4
1r	.	2a	ma-	4cc#X	.
.	.	.	.	2dd	.
.	.	2a	-no	.	.
.	.	.	.	4cc#X	.
1G	Non	2r	.	2dd	-li
.	.	2g	Che	4.b	A-
.	.	.	.	8b	-ven-
=5	=5	=5	=5	=5	=5
2A	&egrave;	4f	tan-	4ccni	-t&ograve;
.	.	4e	-t'e	8cc	nel
.	.	.	.	8cc	mio
2B	que-	4d	s&igrave;	4dd	cor
.	.	4d	mor-	4gg	fiam-
2c	-sta	2e	-ta-	8eeL	-mel-
.	.	.	.	8dd	.
.	.	.	.	8cc	.
.	.	.	.	8bJ	.
2d	la	2f	.	4a	.
.	.	.	.	4a	-le e
=6	=6	=6	=6	=6	=6
2e	ma-	4gni	.	4.cc	stra-
.	.	2a	.	.	.
.	.	.	.	16bL	.
.	.	.	.	16aJ	.
2e	-no	.	.	2b	.
.	.	4g#X	.	.	.
2r	.	2a	-li	2a	-li?
2d	Che	4.f	A-	4ff	Ec-
.	.	.	.	8ff	-co
.	.	8f	-ven-	8ff	che
=7	=7	=7	=7	=7	=7
4c	tan-	4gni	-t&ograve;	4ee	pur
4B	-t'e	8g	nel	4dd	si
.	.	8g	mio	.	.
4A	s&igrave;	4a	cor	4cc	tro-
4A	mor-	4cc	fiam-	4a	-va
2G	-ta-	8bL	-mel-	8r	.
.	.	8a	.	8b	Fra
.	.	8g	.	8b	le
.	.	8fJ	.	8b	mie
2A	.	4e	.	4cc	man
.	.	4e	-le e	4cc	ri-
=8	=8	=8	=8	=8	=8
4B	.	4.g	stra-	1dd	-stret-
2c	.	.	.	.	.
.	.	16fL	.	.	.
.	.	16eJ	.	.	.
.	.	2d	.	.	.
4B	.	.	.	.	.
2c	-li	2e	-li?	2g	-ta,
4.c	A-	4cc	Ec-	8r	.
.	.	.	.	8ee	<Fra
.	.	8cc	-co	8ee	le
8c	-ven-	8cc	che	8ee	mie
=9	=9	=9	=9	=9	=9
4d	-t&ograve;	4b-X	pur	4ff	man
8d	nel	4a	si	4ff	ri-
8d	mio	.	.	.	.
4e	cor	4g	tro-	4gg	-stret-
4c	fiam-	4e	-va	4gg	-ta,>
8cL	-mel-	8r	.	4ee	Ec-
8B	.	8e	Fra	.	.
8A	.	8e	le	8ee	-co
8GJ	.	8e	mie	8ee	che
4F	.	4f	man	4dd	pur
4A	-le e	4f	ri-	4cc	si
=10	=10	=10	=10	=10	=10
2G	stra-	1g	-stret-	4b	tro-
.	.	.	.	4b	-va
2G	-li?	.	.	8r	.
.	.	.	.	8b	Fra
.	.	.	.	8b	le
.	.	.	.	8b	mie
2r	.	2c	-ta,	4cc	man
.	.	.	.	4cc	ri-
4g	Ec-	2r	.	4dd	-stret-
8g	-co	.	.	4dd	-ta,
8g	che	.	.	.	.
=11	=11	=11	=11	=11	=11
4f	pur	4cc	Ec-	2r	.
4e	si	8cc	-co	.	.
.	.	8cc	che	.	.
4d	tro-	4b-X	pur	4ff	Ec-
4d	-va	4a	si	8ff	-co
.	.	.	.	8ff	che
8r	.	4g	tro-	4ee	pur
8e	Fra	.	.	.	.
8e	le	4g	-va	4ee	si
8e	mie	.	.	.	.
4f	man	8r	.	4dd	tro-
.	.	8a	Fra	.	.
4f	ri-	8a	le	4cc	-va
.	.	8a	mie	.	.
=12	=12	=12	=12	=12	=12
4g	-stret-	4bni	man	8r	.
.	.	.	.	8dd	Fra
4g	-ta,	4b	ri-	8dd	le
.	.	.	.	8dd	mie
8r	.	4cc	-stret-	4ee	man
8e	Fra	.	.	.	.
8e	le	4cc	-ta,	4ee	ri-
8e	mie	.	.	.	.
4f	man	8r	.	1dd	-stret-
.	.	8a	Fra	.	.
4f	ri-	8a	le	.	.
.	.	8a	mie	.	.
2g	-stret-	4b	man	.	.
.	.	4b	ri-	.	.
=13	=13	=13	=13	=13	=13
1c	-ta,	2cc	-stret-	2cc	-ta,
.	.	2cc	-ta,	1g	N&eacute;
1c	N&eacute;	2r	.	.	.
.	.	2e	N&eacute;	2a	for-
=14	=14	=14	=14	=14	=14
2d	for-	2f#X	for-	2a	-za
2d	-za	2f#i	-za	2b	d'ar-
2e	d'ar-	2g	d'ar-	[1b	-te
2e	-te,	2g	-te	.	.
=15	=15	=15	=15	=15	=15
1e	N&eacute;	4r	.	2b]	.
.	.	8g	per	.	.
.	.	8a	fug-	.	.
.	.	4.b	-gir	2r	.
.	.	8cc	le	.	.
2f	for-	4dd	gio-	4r	.
.	.	4dd	-va,	8ff	per
.	.	.	.	8ee	fug-
2f	-za	2r	.	4.dd	-gir
.	.	.	.	8cc	le
=16	=16	=16	=16	=16	=16
1g	d'ar-	4r	.	4b	gio-
.	.	8g	<per	4b	-va,
.	.	8a	fug-	.	.
.	.	4.b	-gir	4r	.
.	.	.	.	8g	<per
.	.	8cc	le	8a	fug-
2g	-te	4dd	gio-	4.b	-gir
.	.	4dd	-va,>	.	.
.	.	.	.	8cc	le
4r	.	2r	.	4dd	gio-
8g	per	.	.	4dd	-va,>
8f	fug-	.	.	.	.
=17	=17	=17	=17	=17	=17
4.e	-gir	4r	.	1g	N&eacute;
.	.	8g	per	.	.
8d	le	8f	fug-	.	.
4c	gio-	4.e	-gir	.	.
4c	-va,	.	.	.	.
.	.	8d	le	.	.
4r	.	4c	gio-	2a	for-
8A	<per	4c	-va,	.	.
8G	fug-	.	.	.	.
4.F	-gir	2c	N&eacute;	2a	-za
8E	le	.	.	.	.
=18	=18	=18	=18	=18	=18
4D	gio-	4d	for-	2b	d'ar-
4D	-va,>	4d	-za	.	.
4r	.	2d	d'ar-	4b	-te
8G	per	.	.	8b	per
8F	fug-	.	.	8a	fug-
2E	-gir	4e	-te	2g	-gir,
.	.	8g	per	.	.
.	.	8f	fug-	.	.
2E	le	2e	-gir,	4r	.
.	.	.	.	8ee	<per
.	.	.	.	8dd	fug-
=19	=19	=19	=19	=19	=19
1F	gio-	4r	.	2cc	-gir,>
.	.	8a	per	.	.
.	.	8g	fug-	.	.
.	.	4f	-gir,	4r	.
.	.	8f	per	8dd	per
.	.	8e	fug-	8cc	fug-
1G	-va,	4d	-gir	4b	-gir
.	.	4e	le	4cc	le
.	.	2d	gio-	2b	gio-
=20	=20	=20	=20	=20	=20
1g	N&eacute;	1c	-va,	1cc	-va,
2e	tien	2r	.	1gg	N&eacute;
2c	fa-	[2g	N&eacute;	.	.
=21	=21	=21	=21	=21	=21
2c	-ce o	4g]	.	2ee	tien
.	.	2e	tien	.	.
2A	sa-	.	.	2cc	fa-
.	.	2e	fa-	.	.
8AL	-et-	.	.	2cc	-ce o
8G	.	.	.	.	.
8A	.	2c	-ce o	.	.
8BJ	.	.	.	.	.
8cL	.	.	.	2a	sa-
8B	.	.	.	.	.
8c	.	4A	sa-	.	.
8dJ	.	.	.	.	.
=22	=22	=22	=22	=22	=22
1e	.	8cL	-et-	8gL	-et-
.	.	8d	.	8f	.
.	.	8e	.	8g	.
.	.	8fJ	.	8aJ	.
.	.	8gL	.	8bL	.
.	.	8f	.	8a	.
.	.	8g	.	8b	.
.	.	8aJ	.	8ccJ	.
2d	-ta	4b	.	2.dd	.
.	.	4a	-ta	.	.
4r	.	4r	.	.	.
8d	Che	8f	Che	4a	-ta
8e	da	8g	da	.	.
=23	=23	=23	=23	=23	=23
2f	me	2a	me	4r	.
.	.	.	.	8a	Che
.	.	.	.	8b	da
4r	.	2r	.	2cc	me
8e	la	.	.	.	.
8f	di-	.	.	.	.
1g	-fen-	4r	.	4r	.
.	.	8g	la	8b	la
.	.	8a	di-	8cc	di-
.	.	2b	-fen-	2dd	-fen-
=24	=24	=24	=24	=24	=24
1c	-da.	1cc	-da.	1ee	-da.
4g	Giu-	4b	Giu-	4dd	Giu-
4g	-st'&egrave;	4b	-st'&egrave;	4dd	-st'&egrave;
2g	ben	2b	ben	2dd	ben
=25	=25	=25	=25	=25	=25
4g	ch'io	4b	ch'io	4dd	ch'io
4a	ne	4a	ne	4cc	ne
2e	pren-	2g#X	pren-	2b	pren-
4e	-da,	4g#i	-da,	4b	-da,
4a	A-	4a	A-	4cc	A-
4g	-mor,	4b	-mor,	4dd	-mor,
4e	qual-	4cc	qual-	4ee	qual-
=26	=26	=26	=26	=26	=26
4f	-che	4a	-che	4cc	-che
4d	ven-	4b	ven-	4dd	ven-
2c	-det-	2cc	-det-	2ee	-det-
4c	-ta,	4cc	-ta,	4ee	-ta,
4e	A-	4g	A-	4b	A-
4d	-mor,	4f#X	-mor,	4dd	-mor,
4B	qual-	4g	qual-	4dd	qual-
=27	=27	=27	=27	=27	=27
4c	-che	4e	-che	4cc	-che
4A	ven-	4f#i	ven-	4cc	ven-
2G	-det-	2g	-det-	2b	-det-
1G	-ta,	1g	-ta,	1b	-ta,
=28	=28	=28	=28	=28	=28
1c	E	2r	.	2r	.
.	.	2.cc	E	2.ee	E
2g	se	.	.	.	.
.	.	2b	se	2dd	se
2a	pia-	.	.	.	.
.	.	[4a	pia-	[4cc	pia-
=29	=29	=29	=29	=29	=29
2e	-ghe	4a]	.	4cc]	.
.	.	2g	-ghe	2b	-ghe
2f	mi	.	.	.	.
.	.	4f	mi	4a	mi
1c	di&egrave;,	1e	di&egrave;	2g	di&egrave;
.	.	.	.	4ee	ba-
.	.	.	.	8ee	-ci
.	.	.	.	8dd	le
=30	=30	=30	=30	=30	=30
2r	.	4a	ba-	4cc	ren-
.	.	8a	-ci	4cc	-da,
.	.	8b	le	.	.
2a	E	4cc	ren-	4ee	ba-
.	.	4cc	-da,	8ee	-ci
.	.	.	.	8ff	le
2g	se	4b	ba-	4gg	ren-
.	.	8b	-ci	4gg	-da,
.	.	8b	le	.	.
2f	pia-	4cc	ren-	4cc	ba-
.	.	4a	-da,	8cc	-ci
.	.	.	.	8dd	le
=31	=31	=31	=31	=31	=31
2e	-ghe	4b	<ba-	4ee	ren-
.	.	8b	-ci	4ee	-da,
.	.	8cc	le	.	.
2d	mi	4dd	ren-	4a	<ba-
.	.	4dd	-da,>	8a	-ci
.	.	.	.	8b	le
2c	di&egrave;,	4g	<ba-	4cc	ren-
.	.	8g	-ci	4cc	-da,>
.	.	8f	le	.	.
4c	ba-	4e	ren-	4ee	<ba-
8c	-ci	4e	-da,>	8ee	-ci
8B	le	.	.	8dd	le
=32	=32	=32	=32	=32	=32
4A	ren-	4a	<ba-	4cc	ren-
4A	-da,	8a	-ci	4cc	-da,>
.	.	8g	le	.	.
2d	ba-	4f	ren-	4dd	ba-
.	.	4a	-da,>	8cc	-ci
.	.	.	.	8b	le
2d	-ci,	4dd	ba-	4a	ren-
.	.	8cc	-ci	4a	-da,
.	.	8b	le	.	.
2d	ba-	4a	ren-	4dd	<ba-
.	.	4a	-da,	8cc	-ci
.	.	.	.	8b	le
=33	=33	=33	=33	=33	=33
2d	-ci	4dd	<ba-	4a	ren-
.	.	8cc	-ci	4a	-da,>
.	.	8b	le	.	.
2d	le	4.a	ren-	4dd	<ba-
.	.	.	.	8cc	-ci
.	.	8g	.	8b	le
1d	ren-	4.f#X	.	4.a	ren-
.	.	8e	.	8g	.
.	.	2f#X	.	2a	.
=34	=34	=34	=34	=34	=34
!!LO:MD:P=C0&colon;p20
0Gl	-da.	0gl	-da.>	0bl	-da.>
==	==	==	==	==	==
*-	*-	*-	*-	*-	*-
!!!system-decoration: [*]
!!!RDF**kern: i = editorial accidental
!!!RDF**kern: l = terminal long
!!!ENC: Emiliano Ricciardi
!!!END: 2013
!!!EED: Ricciardi, Emiliano
!!!EEV: 2017/10/16
!!!YEC: Copyright 2013 Emiliano Ricciardi, All Rights Reserved
!!!ONB: Translated from MusicXML on 2014/11/15 and edited by Craig Stuart Sapp
!!@@BEGIN:	VERSEDATA
!!@SOLERTI:	47
!!@CATALOGNUM:	Trm0047
!!@LAST_MODIFIED: 2020/07/12
!!@TITLE:		Non è questa la mano
!!@GENRE:		madrigale/ballata
!!@MANUSRC:	Amz, Brn, C, E<sub>1</sub>, F<sub>2</sub>, I<sub>3</sub>, M<sub>7</sub>, P<sub>4</sub>, Tr<sub>2</sub>, V<sub>8</sub>, V<sub>13/E1</sub>
!!@PRINTSRC:	8, 9, 11, 12, 13, 15, 20, 24, 29, 33, 67, 145
!!@@BEGIN:	VERSES
!!@ABOUTIT:	Ballando con la sua donna desidera di fare amorosa vendetta de la sua mano ch’egli teneva stretta.
!!@ABOUTEN:	Dancing with his lady, he desires to take amorous revenge on the hand he held tight.
!!@EDITOR:	Solerti, Angelo
!!@EDITION_TITLE: Le Rime di Torquato Tasso
!!@EDITION_LOC:	Bologna
!!@EDITION_PUB:	Romagnoli-Dall’Acqua
!!@EDITION_DATE:  1898-1902
!!@EDITION_VOL:	2
!!@EDITION_PAGE:  71
!!@TRANSLATOR:	Emiliano Ricciardi and Amyrose McCue Gill
!!@VERSE:
!!	Non è questa la mano
!!	Che tante e sì mortali
!!	Avventò nel mio cor fiammelle e strali?
!!	Ecco che pur si trova
!!	Fra le mie man ristretta
!!	Né forza od arte per fuggir le giova,
!!	Né tien face o saetta
!!	Che da me la difenda.
!!	Giusto è ben ch'io ne prenda,
!!	Amor, qualche vendetta,
!!	E se piaghe mi diè baci le renda.
!!@TVERSE:
!!	Is this not the hand
!!	That so many and truly fatal
!!	Flames and arrows hurled at my heart?
!!	Yet here it is, to be found
!!	Held fast between my hands,
!!	Neither strength nor craft can help it escape,
!!	Nor does it hold a torch or a spear
!!	To defend her against me.
!!	It is just that I take,
!!	Love, some kind of revenge,
!!	And if she gave me wounds, may I give her kisses.
!!@@END:		VERSES
!!@OTHER_CRIT_ED:   Torquato Tasso, <i>Rime d’amore (secondo il codice
!!		Chigiano L VIII 302)</i>, eds. Franco Gavazzeni and
!!		Vercingetorige Martignone, vol. 4 of <i>Edizione
!!		Nazionale delle opere di Torquato Tasso</i>
!!		(Alessandria: Edizioni Dell’Orso, 2004), 34.
!!@ATTRIBUTION_ABOUT:	Secure
!!		<br>
!!		Among other authoritative sources (see Literary
!!		Sources), this poem appears in the autograph Chigiano
!!		L.VIII.302 (Biblioteca Vaticana, Rome), compiled
!!		around 1584&ndash;85.
!!@DATING:	Before 1579
!!		<br>
!!		Although Solerti dates this poem to the early 1560s,
!!		there is no hard evidence to support this dating.
!!		The earliest written testimony of “Non è questa la
!!		mano” is Benedetto Pallavicino’s musical setting,
!!		published in 1579 (Trm0047a).
!!@DEDICATEE:	Bendidio, Lucrezia
!!@DEDICATEE_INFO:
!!		In the autograph Chigiano L.VIII.302 (Biblioteca
!!		Vaticana, Rome), this poem appears among those
!!		addressed to Tasso’s <i>primo amore</i> (first love),
!!		identified as the Ferrarese singer and noblewoman
!!		<a target="_new" href="http://www.treccani.it/enciclopedia/lucrezia-bendidio_%28Dizionario-Biografico%29">Lucrezia Bendidio</a>
!!		(1547&ndash;after 1584). The poem itself, however, does not mention Lucrezia.
!!		As [Anthony Newcomb] {footnote: Anthony Newcomb, “The Ballata and the ‘Free’ Madrigal in
!!		the Second Half of the Sixteenth Century,” Journal
!!		of the American Musicological Society, vol. 63, no.
!!		3 (Fall 2010): 433&ndash;34.} has pointed out, this poem belongs to the
!!		hybrid genre of the ballata-madrigale.  More
!!		specifically, the opening tercet recalls the
!!		<i>ripresa</i> of a ballata, the central section
!!		the <i>piedi</i> (two pairs of <i>settenarii</i>
!!		separated by an <i>endecasillabo</i>), and the final
!!		tercet the <i>volta</i>. The poem is extremely rich
!!		of references to <i>topoi</i> that resonated with
!!		the culture of the time, such as courtly dance and
!!		the female hand–the latter is especially common in
!!		late sixteenth-century lyric poetry (see <i>Rime</i>
!!		315, 571, and 862). Counting 23 settings (see Musical
!!		Settings), “Non è questa la mano” is second only
!!		to “Ardi e gela a tua voglia” (<i>Rime</i> 418),
!!		whose musical fortune, however, is tied to that of
!!		Guarini’s <i>proposta</i> “Ardo sì, ma non t’amo.”
!!@@END:		VERSEDATA
!!@@BEGIN:	SETTING
!!@CATALOGNUM:	Trm0047m
!!@RIMETITLE:	Non è questa la mano
!!@SOLERTI:	47
!!@COMPOSER:	Giovannelli, Ruggiero
!!@PRINCEPSFORMAT: anthology
!!@PRINCEPSTITLE:	Fiori musicali, libro secondo
!!@PRINCEPSLOC:	Venetia
!!@NORMLOC:	Venice
!!@NORMPUB:	Vincenzi
!!@NORMPUBSHORT:	Vincenzi
!!@PRINCEPSPUB:	Vincenzi
!!@PRINCEPSYEAR:	1588
!!@PRINCEPSRISM:	1588-20
!!@REPRINTS:	1598-10, 1604-13
!!@OVOICES:	3
!!@EXTANTVOICES:	3
!!@PARTBOOKS:	
!!@EXTPARTBOOKS:	
!!@OCLEFS:	G2,C2,C3
!!@OMENSURATION:	C
!!@OKEYSIG:	-
!!@FINAL:	G
!!@TIMPEDITOR:	Ricciardi, Emiliano
!!@NOTE:		
!!@@BEGIN:	VERSES
!!@VERSE:
!!	Non è questa la mano
!!	Che tant'e sì mortali
!!	Aventò nel mio cor fiammell'e strali?
!!	Ecco che pur si trova
!!	Fra le mie man ristretta,
!!	Né forza d'arte per fuggir le giova,
!!	Né tien face o saetta
!!	Che da me la difenda.
!!	Giust'è ben ch'io ne prenda,
!!	Amor, qualche vendetta,
!!	E se piaghe mi diè, baci le renda.
!!@@END:		VERSES
!!@@BEGIN:	TRANSLATION
!!@VERSE:
!!	Isn't this the hand
!!	That hurled so many fatal
!!	Flames and arrows at my heart?
!!	Yet behold where it is,
!!	Held fast in my hands,
!!	Where no power or artifice can help it escape,
!!	Nor can it grasp a torch or a spear
!!	To defend itself against me.
!!	It's only fair that I should have
!!	Some kind of revenge, o Love,
!!	And if she gave me wounds, I'll give her kisses.
!!@@END:		TRANSLATION
!!@@END:		SETTING
